X:18926
T:Wounded Hussar,The. CJF.131
M:6/8
L:1/8
Q:60
S: C.J.Fox MS, 1829/33, Beverley,E.Yorks.
R:Air
O:England
A:East Yorkshire
B:Kidson Coll.Mitchell Lib.M1805
Z:P J Headford 2000
K:G
(A/G/)|EABc2(B/A/)|(B/c/d/c/B/A/) GAB|\
cec (e/d/)(c/B/)(A/G/)|FAAA2:||:!(A/B/)|ceee2d/c/|
Bddd2g/f/|ea^g g>bc'|ea^ga2(a/b/)|!c'ba geg|\
dBg GAB|cec (e/d/)(c/B/)(A/G/)|FAAA2:||


